X:12
T:Whistle o'er the leave o't
T:aka Whistle o'er the lave o't, Sheann Trubhais
R:strathspey
C:traditional
O:18th century Scottish
B:Bremner's Collections, 1757
N:melodic code 16L33 5126L (1633 5126)
Z:Paul Stewart Cranford (P.S.C.), <http://www.cranfordpub.com>
L:1/8
Q:244
M:C
K:G
G>DE>G TB>A B2|d>eB>g TA>G E2|G>DE>G B>ABg|G<GB>G TA2 G2:|
|:(de/f/ g>)d e>d TB2|d>eB>g TA>G E2|g>be>g d>eBg|A<GB>G TA2 G2:|
|:G>BA>c B>GA>c|B>GA>E G>B, TA,2|G,>B,A,>C B,>DGB|G<GB>G TA2 G2:|
|:(G/A/B/c/ d)g ed TB2|c>AB>G c>G TE2|(TBA/B/) (TcB/c/) de/f/ gf/e/|d<GB>G TA2 G2:|
